X:247
T:Wilkinson’s Hornpipe TS.247
M:C
L:1/8
Q:1/2=90
S:Thomas Sands’ MS,1810,Lincolnshire
R:.hornpipe
O:England;Lincolnshire
Z:vmp.Ruairidh Greig, 2011
K:A
ED|CEB,E CEA,E|CEAc ecAE|FAGA EAGA|FBdB AGFE|
CEB,E CEA,E|CEAc ecAE|Dfed caAf|edcBA2:|
|:ed|ceAe ceAe|agfe dcBA|BABc dcde|fdBA AGFE|
FAEA DACA|B,BdB AGFE|Dfed cGAF|EDCB,A,2:|]

